X:39
T:Thou art gone awa’. JClw.39
M:2/4
L:1/8
Q:1/4=120
S:J.Clews MS,Stoke-upon-Tern,Shrops.1832
N:Possibly a song tune. The fermata signs
N:suggest it is played somewhat freely.
A:N. Shropshire
Z:Neil Brookes 2006
K:C
“^Larghetto”
e>d|c>Bc>B|c2BA|G>A G>E|G2e>d|\
{d}c3A|G>A c>d|e>f e/d/c/d/|c2e>d|!
c>Bc>A|c3B/A/|G>A G>E|G2e>d|\
{d}c3A|G>A c>d|e>f e/d/c/d/|c2zc|!
c>de>f|g3a|{a}g2 ec|d2zc|\
c>de>f|g3a|{a}g2f>e|{e}d2zc|!
g3a|{a}g2 f/e/d/e/|{e}Hd2 e>d|c>Bc>A|\
G>A Hcd|e>f e/d/c/d/|c2|]

